src/Pure/16/symbolic/actions/system-hibernate-symbolic.svg

<?xml version="1.0" encoding="UTF-8" standalone="no"?>
<svg
   width="16"
   height="16"
   version="1.1"
   id="svg1"
   sodipodi:docname="system-hibernate-symbolic.svg"
   inkscape:version="1.4.2 (ebf0e940d0, 2025-05-08)"
   xmlns:inkscape="http://www.inkscape.org/namespaces/inkscape"
   xmlns:sodipodi="http://sodipodi.sourceforge.net/DTD/sodipodi-0.dtd"
   xmlns="http://www.w3.org/2000/svg"
   xmlns:svg="http://www.w3.org/2000/svg">
  <defs
     id="defs1">
     <style
        id="current-color-scheme"
        type="text/css">
        .ColorScheme-Text { color:#363636; }
     </style>
  </defs>
  <sodipodi:namedview
     id="namedview1"
     pagecolor="#ffffff"
     bordercolor="#000000"
     borderopacity="0.25"
     inkscape:showpageshadow="2"
     inkscape:pageopacity="0.0"
     inkscape:pagecheckerboard="0"
     inkscape:deskcolor="#d1d1d1"
     inkscape:zoom="49.6875"
     inkscape:cx="8"
     inkscape:cy="8"
     inkscape:window-width="1920"
     inkscape:window-height="1010"
     inkscape:window-x="0"
     inkscape:window-y="0"
     inkscape:window-maximized="1"
     inkscape:current-layer="svg1" />
  <path
     id="path1"
     style="fill:currentColor"
     class="ColorScheme-Text"
     d="M 6.5390625 1.15625 A 7 7 0 0 0 3.0507812 3.0507812 A 7 7 0 0 0 3.0507812 12.949219 A 7 7 0 0 0 12.949219 12.949219 A 7 7 0 0 0 14.376953 10.857422 A 7 7 0 0 0 14.388672 10.853516 A 7 7 0 0 0 14.441406 10.720703 A 7 7 0 0 0 14.535156 10.478516 A 7 7 0 0 0 14.693359 10.021484 A 7 7 0 0 0 14.746094 9.828125 A 7 7 0 0 0 14.84375 9.4707031 A 6 6 0 0 1 14.835938 9.4746094 A 6 6 0 0 1 14.830078 9.4785156 A 6 6 0 0 1 13.619141 10.083984 A 6 6 0 0 1 13.619141 10.085938 A 6 6 0 0 1 7.2929688 8.7070312 A 6 6 0 0 1 5.984375 2.2167969 A 6 6 0 0 1 6.1035156 1.9433594 A 6 6 0 0 1 6.2519531 1.6464844 A 6 6 0 0 1 6.390625 1.4003906 A 6 6 0 0 1 6.5351562 1.1621094 A 6 6 0 0 1 6.5390625 1.15625 z M 4.7011719 2.9921875 A 7 7 0 0 0 6.5859375 9.4140625 A 7 7 0 0 0 12.996094 11.304688 A 6 6 0 0 1 12.242188 12.242188 A 6 6 0 0 1 3.7578125 12.242188 A 6 6 0 0 1 3.7578125 3.7578125 A 6 6 0 0 1 4.7011719 2.9921875 z " />
</svg>

<svg width="16" height="16" version="1.1" xmlns="http://www.w3.org/2000/svg">
 <path d="m3.0503 3.0503a7 7 0 0 0 0 9.8995 7 7 0 0 0 9.8995 0 7 7 0 0 0 1.4266-2.0923 7 7 0 0 0 0.01243-0.0041 7 7 0 0 0 0.05248-0.13258 7 7 0 0 0 0.09391-0.24307 7 7 0 0 0 0.15882-0.45713 7 7 0 0 0 0.05248-0.19335 7 7 0 0 0 0.09667-0.35632 6 6 0 0 1-0.0069 0.00414 6 6 0 0 1-0.0055 0.00276 6 6 0 0 1-1.2112 0.60629 6 6 0 0 1-0.0014 0.0014 6 6 0 0 1-6.3253-1.3784 6 6 0 0 1-1.3079-6.4896 6 6 0 0 1 0.11877-0.27345 6 6 0 0 1 0.14916-0.29831 6 6 0 0 1 0.13673-0.24445 6 6 0 0 1 0.14501-0.23892 6 6 0 0 1 0.0041436-0.0069057 7 7 0 0 0-3.4886 1.8948zm0.70711 0.70711a6 6 0 0 1 0.94465-0.76511 7 7 0 0 0 1.8838 6.422 7 7 0 0 0 6.4095 1.8907 6 6 0 0 1-0.75268 0.93774 6 6 0 0 1-8.4853 0 6 6 0 0 1 0-8.4853z" fill="#363636"/>
</svg>
